!!!OTL: EI MEI LIEBES MALCHEN
!!!ARE: Europa, Mitteleuropa, Deutschland, Kuhlaendchen
!!!SCT: E1558
!!!YEM: Copyright 1995, estate of Helmut Schaffrath.
**kern
*ICvox
*Ivox
*M3/4
*k[f#c#g#d#]
*E:
=1
{8b
8b
4b
4ee
=2
8ddn
8ddn
4b}
{4ddn
=3
8a
8a
8a
8b
8ccn
8a
=4
2b
8r}
{8e
=5
8e
8f#
8gn
8gn
8f#
8f#
=6
8gn
8e
8dn
8dn
8gn}
{8gn
=7
8f#
8f#
8gn
8gn
8b
8a
=8
8gn
8gn
4f#
4d#
=9
2e
4r}
==
!!!AGN: Staende -, Bauern - Lied, Flachsbrechen, bei der Arbeit
!!!ONB: ESAC (Essen Associative Code) Database: ERK3
!!!AMT: simple triple
!!!AIN: vox
!!!EED: Helmut Schaffrath
!!!EEV: 1.0
*-
